contributed-vectors/mi_store.svg

<svg xmlns="http://www.w3.org/2000/svg" width="192" height="192" fill="none"><g clip-path="url(#a)"><path fill="#F8C18C" fill-rule="evenodd" d="M29 19h133c5.5 0 10 4.5 10 10v133c0 5.5-4.5 10-10 10H29c-5.5 0-10-4.5-10-10V29c0-5.5 4.5-10 10-10Z" clip-rule="evenodd"/><path fill="#fff" d="M131.2 72.2h-9.9c-.4 0-.8.3-.8.8v45.1c0 .4.3.7.8.7h9.9c.4 0 .8-.3.8-.7V72.9c0-.4-.3-.7-.8-.7ZM97.5 72.2H59.8c-.4 0-.8.3-.8.8v45.1c0 .4.3.7.8.7h9.9c.4 0 .8-.3.8-.7V82.6c0-.4.3-.7.8-.7h21.3c6 0 7.7 4.6 7.7 7.6v28.6c0 .4.3.7.8.7h9.9c.4 0 .8-.3.8-.7V86c0-2.6-.3-6.4-3.7-9.8-3.8-3.4-7-4-10.6-4Z"/><path fill="#fff" d="M90.5 90.2H80.1c-.4 0-.8.3-.8.7v27.2c0 .4.3.7.8.7h10.4c.4 0 .8-.3.8-.7V90.9c0-.4-.4-.7-.8-.7Z"/></g><defs><clipPath id="a"><path fill="#fff" d="M0 0h192v192H0z"/></clipPath></defs></svg>

<svg width="192" height="192" viewBox="0 0 192 192" fill="none" xmlns="http://www.w3.org/2000/svg">
<g clip-path="url(#clip0)">
<path fill-rule="evenodd" clip-rule="evenodd" d="M29 19H162C167.5 19 172 23.5 172 29V162C172 167.5 167.5 172 162 172H29C23.5 172 19 167.5 19 162V29C19 23.5 23.5 19 29 19Z" fill="#F8C18C"/>
<path d="M131.2 72.2H121.3C120.9 72.2 120.5 72.5 120.5 73V118.1C120.5 118.5 120.8 118.8 121.3 118.8H131.2C131.6 118.8 132 118.5 132 118.1V72.9C132 72.5 131.7 72.2 131.2 72.2Z" fill="white"/>
<path d="M97.5 72.2H59.8C59.4 72.2 59 72.5 59 73V118.1C59 118.5 59.3 118.8 59.8 118.8H69.7C70.1 118.8 70.5 118.5 70.5 118.1V82.6C70.5 82.2 70.8 81.9 71.3 81.9H92.6C98.6 81.9 100.3 86.5 100.3 89.5V118.1C100.3 118.5 100.6 118.8 101.1 118.8H111C111.4 118.8 111.8 118.5 111.8 118.1V86C111.8 83.4 111.5 79.6 108.1 76.2C104.3 72.8 101.1 72.2 97.5 72.2Z" fill="white"/>
<path d="M90.5 90.2H80.1C79.7 90.2 79.3 90.5 79.3 90.9V118.1C79.3 118.5 79.6 118.8 80.1 118.8H90.5C90.9 118.8 91.3 118.5 91.3 118.1V90.9C91.3 90.5 90.9 90.2 90.5 90.2Z" fill="white"/>
</g>
<defs>
<clipPath id="clip0">
<rect width="192" height="192" fill="white"/>
</clipPath>
</defs>
</svg>
